Origami/48x48/apps/sgt-launcher.svg

<svg width="48" height="48" version="1" xmlns="http://www.w3.org/2000/svg">
 <path d="m24 4h-18c-1.108 0-2 0.892-2 2v18h20z" style="fill:#8e8e8e"/>
 <path d="m24 4h18c1.108 0 2 0.892 2 2v18h-20z" style="fill:#cccccc"/>
 <path d="m24 44h-18c-1.108 0-2-0.892-2-2v-18h20z" style="fill:#45792a"/>
 <path d="m24 44h18c1.108 0 2-0.892 2-2v-18h-20z" style="fill:#8e8e8e"/>
 <path d="m6 4c-1.108 0-2 0.892-2 2v1c0-1.108 0.892-2 2-2h36c1.108 0 2 0.892 2 2v-1c0-1.108-0.892-2-2-2h-36z" fill="#fff" opacity=".2"/>
 <path d="m6 45c-1.108 0-2-0.892-2-2v-1c0 1.108 0.892 2 2 2h36c1.108 0 2-0.892 2-2v1c0 1.108-0.892 2-2 2h-36z" opacity=".2"/>
 <circle cx="14" cy="15" r="6" style="opacity:.1"/>
 <circle cx="14" cy="14" r="6" style="fill:#ffffff"/>
 <path transform="matrix(.87089716 0 0 1.0056254 1.7461709 1.0903934)" d="m14.070352 26.759076 4.018844 6.960842 4.018844 6.960843h-8.037688-8.037689l4.018844-6.960842z" style="opacity:.1"/>
 <path transform="matrix(.87089716 0 0 1.0056254 1.7461709 .09039337)" d="m14.070352 26.759076 4.018844 6.960842 4.018844 6.960843h-8.037688-8.037689l4.018844-6.960842z" style="fill:#ffdd4c"/>
 <path d="m32 9v4h-4v4h4v4h4v-4h4v-4h-4v-4h-4z" style="opacity:.1"/>
 <path d="m32 8v4h-4v4h4v4h4v-4h4v-4h-4v-4h-4z" style="fill:#3f3f3f"/>
 <path d="m40 28-4 2.6v11.4h4z" style="opacity:.1"/>
 <path transform="scale(-1,1)" d="m-40 27 4 2.6v11.4h-4z" style="fill:#3f3f3f"/>
 <path transform="matrix(0 .6220694 .86196463 0 4.9346232 24.247265)" d="m14.070352 26.759076 4.018844 6.960842 4.018844 6.960843h-8.037688-8.037689l4.018844-6.960842z" style="opacity:.1"/>
 <path transform="matrix(0 .6220694 .86196463 0 4.9346232 23.247265)" d="m14.070352 26.759076 4.018844 6.960842 4.018844 6.960843h-8.037688-8.037689l4.018844-6.960842z" style="fill:#e33939"/>
</svg>

<svg xmlns="http://www.w3.org/2000/svg" width="48" height="48" version="1">
 <path style="fill:#8e8e8e" d="m24 4h-18c-1.108 0-2 0.892-2 2v18h20z"/>
 <path style="fill:#cccccc" d="m24 4h18c1.108 0 2 0.892 2 2v18h-20z"/>
 <path style="fill:#45792a" d="m24 44h-18c-1.108 0-2-0.892-2-2v-18h20z"/>
 <path style="fill:#8e8e8e" d="m24 44h18c1.108 0 2-0.892 2-2v-18h-20z"/>
 <path fill="#fff" opacity=".2" d="m6 4c-1.108 0-2 0.892-2 2v1c0-1.108 0.892-2 2-2h36c1.108 0 2 0.892 2 2v-1c0-1.108-0.892-2-2-2h-36z"/>
 <path opacity=".2" d="m6 45c-1.108 0-2-0.892-2-2v-1c0 1.108 0.892 2 2 2h36c1.108 0 2-0.892 2-2v1c0 1.108-0.892 2-2 2h-36z"/>
 <circle style="opacity:0.1" cx="14" cy="15" r="6"/>
 <circle style="fill:#ffffff" cx="14" cy="14" r="6"/>
 <path style="opacity:0.1" d="m 14.070352,26.759076 4.018844,6.960842 4.018844,6.960843 -8.037688,0 -8.037689,0 4.018844,-6.960842 z" transform="matrix(0.87089716,0,0,1.0056254,1.7461709,1.0903934)"/>
 <path style="fill:#ffdd4c" d="m 14.070352,26.759076 4.018844,6.960842 4.018844,6.960843 -8.037688,0 -8.037689,0 4.018844,-6.960842 z" transform="matrix(0.87089716,0,0,1.0056254,1.7461709,0.09039337)"/>
 <path style="opacity:0.1" d="m 32,9 0,4 -4,0 0,4 4,0 0,4 4,0 0,-4 4,0 0,-4 -4,0 0,-4 -4,0 z"/>
 <path style="fill:#3f3f3f" d="M 32 8 L 32 12 L 28 12 L 28 16 L 32 16 L 32 20 L 36 20 L 36 16 L 40 16 L 40 12 L 36 12 L 36 8 L 32 8 z"/>
 <path style="opacity:0.1" d="m 40,28 -4,2.6 0,11.4 4,0 z"/>
 <path style="fill:#3f3f3f" d="m -40,27 4,2.6 0,11.4 -4,0 z" transform="scale(-1,1)"/>
 <path style="opacity:0.1" d="m 14.070352,26.759076 4.018844,6.960842 4.018844,6.960843 -8.037688,0 -8.037689,0 4.018844,-6.960842 z" transform="matrix(0,0.6220694,0.86196463,0,4.9346232,24.247265)"/>
 <path style="fill:#e33939" d="m 14.070352,26.759076 4.018844,6.960842 4.018844,6.960843 -8.037688,0 -8.037689,0 4.018844,-6.960842 z" transform="matrix(0,0.6220694,0.86196463,0,4.9346232,23.247265)"/>
</svg>
